!!!COM: Augusta Holme\s
!!!CNT: Francais
!!!TXO: Francais
!!!OTL: "Chanson Lointaine"
!!!LYR: 
!!!OPR: Vingt Me/lodies
!!!OPS: Op. 
!!!ONM: No. 1
!!!ENC: Alyona Dzerbina
!!!YOR: Augusta Holme\s, Chanson Lointaine
!!!YOR: Da Capo Press, New York, 1984
!!!ODT: 1899/
!!NB: Vocal melody and text encoded.
**kern	**text
*staff1	*staff1
=1-	=1-
*clefG2	*
*k[b-e-a-d-]	*
*M3/4	*
2.r	.
=2	=2
2.r	.
=3	=3
2.r	.
=4	=4
2.r	.
=5	=5
{4a-	{Bien
4a-	loin,
8r	.
8b-	la\-
=6	=6
2cc	-bas,
8.a-	au
16e-	pa-
=7	=7
4f	-ys
4.b-	de
8g	Bo-
=8	=8
2a-	-he^-
4e-}	-me,}
=9	=9
{4a-	{Dans
4.a-	un
8b-	pa-
=10	=10
[2cc	-lais
8cc]	|
8e-	aux
=11	=11
4.f	murs
8f	de
8b-	di-
8g	-a-
=12	=12
[2a-	-mant
8a-]}	|}
8r	.
=13	=13
{4dd-	{O
4.a-	en-
8f	-fer-
=14	=14
2cc	-ma
8.g	la
16en	Prin-
=15	=15
4an	-ces-
4.ddn	-se
8bn	qua
=16	=16
(2cc	j'ai-
8g)}	-me!}
8r	.
=17	=17
{4dd-	{De-
4.a-	-puis
8f	ce
=18	=18
[2cc	jour
8cc]	|
8c	je
=19	=19
4.d-	meurs
8e-	de-
8g	-mon-
8b-	-tour-
=20	=20
[2a-	-ment!
8a-]}	|}
8r	.
=21	=21
{(2cc	{O
8ee-	tour-
8ff	-te-
=22	=22
2cc	-rel-
8b-)	-le!
8r	.
=23	=23
(4.cc	Vole
8cc	a\
8ee-	ti-
8ff	-re
=24	=24
2cc	d'ai-
8b-)}	-le,}
8r	.
=25	=25
{4a-	{Porte
4.g	a\
8f	ma
=26	=26
(2cc	bel-
8g)	-le,
8en	Mes
=27	=27
2g	pleurs
12d-	et-
12e-	mon
12f	de/
=28	=28
[2g	-sir!
8g]}	|}
8r	.
=29	=29
{(2cc	{O
8ee-	tour-
8ff	te
=30	=30
2cc	rel
8b-)	-le,
8r	.
=31	=31
(4.cc	Vole
8cc	a
8ee-	ti-
8ff	-re
=32	=32
2cc	d'ai-
8b-)}	-le.}
8r	.
=33	=33
{4a-	{Car
4.ff-	c'est
8ff-	pour
=34	=34
(4.ee-	el-
8cc)	-le
8a-	Que-
8c	-je
=35	=35
4d-	veux
2b-	mou-
=36	=36
[2a-	-rir!
8a-]}	|}
8r	.
=37	=37
2.r	.
=38	=38
2.r	.
=39	=39
2.r	.
=40	=40
2.r	.
=41	=41
2.r	.
=42	=42
2.r	.
=43	=43
2.r	.
=44	=44
2.r	.
=45	=45
{4a-	{Pau-
4.a-	-vre
8b-	chas-
=46	=46
2cc	-seur,
8.a-	sans
16e-	tre/-
=47	=47
4f	-sors
4.b-	ni
8g	tro-
=48	=48
(2a-	-phe-
4e-)}	-es,}
=49	=49
{4a-	{Je
4.a-	cherche
8b-	en
=50	=50
2cc	vain
8.a-	par
16e-	les
=51	=51
4f	nuits
4.b-	et
8g	les
=52	=52
[2a-	jours,
8a-]}	|}
8r	.
=53	=53
{4dd-	{Sur
4.a-	la
8f	mon-
=54	=54
2cc	-tagne
8.g	ou\
16en	les
=55	=55
4an	ro-
4.ddn	-ses
8bn	sont
=56	=56
(2cc	fe/-
8g)}	-es}
8r	.
=57	=57
{4dd-	{La
4.a-	fleur
8f	qui
=58	=58
[2cc	doit
8cc]	|
8c	me
=59	=59
4.d-	ren-
8e-	-dre-
8g	-mes
8b-	a-
=60	=60
[2a-	-mours!
8a-]}	|}
8r	.
=61	=61
{(2cc	{O
8ee-	tour-
8ff	-te-
=62	=62
2cc	-rel-
8b-)	-le,
8r	.
=63	=63
(4.cc	 Vole
8cc	a\
8ee-	ti-
8ff	-re
=64	=64
2cc	d'ai-
8b-)}	-le!}
8r	.
=65	=65
{4a-	{Porte
4.g	a\-
8f	-ma
=66	=66
(2cc	bel-
8g)	-le,
8en	Mes
=67	=67
2g	pleurs
(12d-	et-
12e-	-mon
12f)	de/-
=68	=68
[2g	-sir!
8g]}	|}
8r	.
=69	=69
{(2cc	{O
8ee-	tour-
8ff	-te-
=70	=70
2cc	-rel-
8b-)	-le,
8r	.
=71	=71
(4.cc	Vole
8cc	a\
8ee-	ti-
8ff	-re
=72	=72
2cc	d'ai-
8b-)}	-le,}
8r	.
=73	=73
{4a-	{Car
4.ff-	c'est
8ffn	pour
=74	=74
(4.ee-	el-
8cc)	-le
(8a-	Que
8c)	je
=75	=75
4d-	veux
2b-	mou-
=76	=76
[2a-	-rir!...
8a-]}	|}
8r	.
=77	=77
2.r	.
=78	=78
2.r	.
=79	=79
2.r	.
=80	=80
2.r	.
=81	=81
2.r	.
=82	=82
2.r	.
=83	=83
2.r	.
=84	=84
2.r	.
==	==
*-	*-
